X: 36772
T: Shepherd's Daughter, The
R: reel
M: 4/4
K: Adorian
egfg egdg|eAAA eABd|egfg e2 dB|dGGG dGBd|
egfg egdg|eAAA eABd|egfg e2 dB|defg bgag||
eaag e3d|eaaB cBcd|eaag e2 dB|dGGG dGBd|
eaag e3d|eaaB cBcd|eaag efga bgaf g2 fg||

